X:1
T:Title
%%score { ( 1 3 5 ) | ( 2 4 ) }
L:1/8
M:4/4
K:C
V:1 treble nm="Grand Piano"
V:3 treble 
V:5 treble 
V:2 bass 
V:4 bass 
V:1
 z4 z2[Q:1/4=100] E2 | E3 E E2 F2 | [FA]2 [EG]4 [EG]2 | c3 c d2 d2 | e6 [Ec]2 | c3 c c2 [GB]2 | %6
 [GB]2 [FA]4 [FA]2 | [^Fd]3 [Fc] [FB]2 [FA]2 | [DGB]4 [FA]2 [FG]-[G,FG] | E3 E E2 F2 | %10
 [FA]2 [EG]4 [EG]2 | c3 c d2 d2 | e6 G2 | e2 d2 c2 [GB]2 | [GB]2 A4 A2 | G2 c2 [FB]3 [Fd] | %16
[M:3/4] [Ec]6 |[M:1/4] [CE]2 |[M:4/4] [DF]3 E [B,D]E[DF]G | [FA]2 [EG]2 z2 [Ec]2 | [Bd]4 z4 | %21
 [CFA]2 [CEG]4 [EG]2 | [Ge]2 [Fd]2 [Ec]2 [GB]2 | [GB]2 A4 A2 | G2 c2 [FB]3 [Fd] |[M:3/4] [Ec]6 |] %26
V:2
 z4 z2 [C,G,C]2 | [C,G,C]3 [C,G,C] [C,G,C]2 [C,A,C]2 | [C,C]2 [C,C]4 [C,C]2 | %3
 [A,CE]3 [A,CE] [G,B,G]2 [G,B,G]2 | [CG]6[K:bass] [C,C]2 | [A,E]3 [A,E] [A,E]2 [E,C]2 | %6
 [F,C]2 [F,C]4 [F,C]2 | [D,C]3 [D,A,] [D,D]2 [D,D]2 | G,6 z2 | [C,G,C]3 [C,G,C] [C,G,C]2 [C,A,C]2 | %10
 [C,C]2 [C,C]4 [C,C]2 | [A,E]3 [A,E] [G,B,G]2 [G,B,G]2 | [CG]6 [E,CE]2 | %13
 [CG]2 [^G,B,F]2[K:bass] [A,CE]2 [E,C]2 | [F,C]2 [F,CF]4 [F,CF]2 | %15
 [G,CE]2 [G,E]2 [G,,G,]3 [G,,G,] |[M:3/4] [C,G,]6 |[M:1/4] [C,G,]2 |[M:4/4] [G,,G,]2 z C z C z E | %19
 [C,C]2 [C,C]2 z2 [C,G,]2 | [G,,G,]2 z A z F z D | C,2 C,4 C2 | [C,C]2 [^G,B,]2 [A,C]2 [E,C]2 | %23
 [F,C]2 [F,CF]4 [F,CF]2 | [G,CE]2 [G,E]2 [G,,G,]3 [G,,G,] |[M:3/4] [C,G,]6 |] %26
V:3
 x8 | x8 | x8 | x8 | x8 | x8 | x8 | x8 | z4 z2 .B,2 | x8 | x8 | x8 | x8 | x8 | x8 | x8 | %16
[M:3/4] x6 |[M:1/4] x2 |[M:4/4] B,2 B,2 z2 [G,B,]2 | x8 | z2 z c [GB]A[EG]F | x8 | x8 | x8 | x8 | %25
[M:3/4] x6 |] %26
V:4
 x8 | x8 | x8 | x8 | x6[K:bass] x2 | x8 | x8 | x8 | z4 C2 G,,2 | x8 | x8 | x8 | x8 | %13
 x4[K:bass] x4 | x8 | x8 |[M:3/4] x6 |[M:1/4] x2 |[M:4/4] z2 [G,,G,]2 [G,,G,]2 G,,2 | x8 | %20
 z2 G,,2 [G,,G,]2 G,,2 | x8 | x8 | x8 | x8 |[M:3/4] x6 |] %26
V:5
 x8 | x8 | x8 | x8 | x8 | x8 | x8 | x8 | x8 | x8 | x8 | x8 | x8 | x8 | x8 | x8 |[M:3/4] x6 | %17
[M:1/4] x2 |[M:4/4] x8 | x8 | z2 G,2 z2 B,2 | x8 | x8 | x8 | x8 |[M:3/4] x6 |] %26

